svgs/mysmartfren.svg

<svg width="192" height="192" viewBox="0 0 192 192" fill="none" xmlns="http://www.w3.org/2000/svg"><path d="M118 72h26m14-40c-19-6-40 0-40 20v110M92 68c-8-6-17-8-27-8-17 0-30 8-30 21 0 12 5 17 29 22s34 15 34 31c0 17-14 28-36 28-13 0-25-6-32-14" stroke="#000" stroke-width="12" stroke-linecap="round"/><circle cx="160" cy="160" r="8" fill="#000"/></svg>

<svg width="192" height="192" viewBox="0 0 192 192" fill="none" xmlns="http://www.w3.org/2000/svg">
<path d="M118 72H144M158 32C139 26 118 32.0001 118 51.9999V162" stroke="black" stroke-width="12" stroke-linecap="round"/>
<path d="M92 68C84 62 75 60 65 60C48 60 35 68 35 81C35 93 40 98 64 103C88 108 98 118 98 134C98 151 84 162 62 162C49 162 37 156 30 148" stroke="black" stroke-width="12" stroke-linecap="round"/>
<circle cx="160" cy="160" r="8" fill="black"/>
</svg>
